app/assets/images/Contenido/Copiar.svg

<svg fill="none" height="65" viewBox="0 0 59 65" width="59" xmlns="http://www.w3.org/2000/svg"><path d="m18.4991 9.69427c-.1087-.00043-.2165.02043-.3171.0614-.1006.04096-.192.10122-.2691.17731-.077.07612-.1382.16652-.1799.26612-.0417.0995-.0632.2063-.0632.3141 0 .4518.3704.8157.8293.8157h12.1706c.4589 0 .8293-.3639.8293-.8157 0-.1078-.0215-.2146-.0632-.3141-.0417-.0996-.1028-.19-.1799-.26612-.077-.07609-.1685-.13635-.2691-.17731-.1006-.04097-.2083-.06183-.3171-.0614zm12.1706-4.36129c2.4059 0 4.4349 1.59242 5.061 3.76982l7.1293.00325c2.0355.01299 3.6777.66621 4.6938 2.07335.8719 1.209 1.2194 2.7624 1.1309 4.5076l-.0099 42.2901c.1377 1.7939-.2032 3.3798-1.0751 4.696-1.0227 1.5372-2.6911 2.3074-4.7594 2.3269h-35.82671c-2.49115-.0975-4.33657-.6792-5.49037-1.9791-1.071852-1.2057-1.5405815-2.8599-1.52091448-4.8748v-42.4169c-.04261182-1.9499.50478648-3.5943 1.69791448-4.8097 1.23247-1.24798 3.05494-1.80046 5.39859-1.8167h6.34259c.6228-2.1774 2.6518-3.76982 5.0577-3.76982zm0 10.35722h-12.1706c-1.7897 0-3.3663-.8774-4.3169-2.2229h-7.07028c-1.25541.0065-1.97325.2275-2.23548.494-.29828.3022-.47201.819-.45234 1.7257v42.4753c-.00983 1.0562.17045 1.6965.42612 1.9824.177.1983.93746.4388 2.24531.4908h35.72837c.6556-.0065.9178-.13 1.0686-.3543.2983-.4484.4359-1.0854.3605-2.1384l.0033-42.5598c.0459-.9522-.0885-1.5665-.3147-1.8784-.0852-.1138-.3802-.234-1.1013-.2373h-7.857c-.9505 1.3455-2.5272 2.2229-4.3169 2.2229zm22.4302-15.6902c3.2582 0 5.9001 2.60312 5.9001 5.81721v45.76419c0 3.2109-2.6419 5.8172-5.9001 5.8172h-6.418v-4.3645h6.4147c.8162 0 1.4751-.65 1.4751-1.4527v-45.76744c-.0018-.38643-.1581-.75641-.4346-1.02874-.2765-.27234-.6507-.4248-1.0405-.42394h-24.7673c-.8129 0-1.475.64997-1.475 1.45268v.51022h-4.4251v-.51022c0-3.21084 2.642-5.81396 5.9001-5.81396zm-29.5136 38.1888c1.2226 0 2.2125.975 2.2125 2.1807 0 1.2024-.9899 2.1806-2.2125 2.1806h-13.2785c-.2897.0013-.5768-.054-.84493-.1627-.26814-.1088-.51205-.2688-.71781-.471s-.36933-.4426-.48139-.7074c-.11205-.2649-.17039-.549-.17167-.8363 0-1.2057.99318-2.1839 2.2158-2.1839zm13.2818-8.7225c1.2193 0 2.2125.9749 2.2125 2.1806 0 1.2025-.9932 2.1807-2.2125 2.1807h-26.5603c-.2897.0012-.5768-.0541-.84493-.1628-.26814-.1087-.51205-.2687-.71781-.4709s-.36933-.4426-.48139-.7075c-.11205-.2649-.17039-.549-.17167-.8362 0-1.2057.99318-2.1839 2.2158-2.1839zm0-8.7226c1.2193 0 2.2125.975 2.2125 2.1807-.0008.2872-.0588.5714-.1704.8364-.1117.2651-.2749.5057-.4803.7082-.2055.2025-.4492.3629-.7171.472-.268.1091-.555.1649-.8447.164h-26.5603c-.2897.0013-.5768-.054-.84493-.1628-.26814-.1087-.51205-.2687-.71781-.4709s-.36933-.4426-.48139-.7075c-.11205-.2648-.17039-.549-.17167-.8362 0-1.2057.99318-2.1839 2.2158-2.1839z" fill="#003778"/></svg>

<svg width="59" height="65" viewBox="0 0 59 65" fill="none" xmlns="http://www.w3.org/2000/svg">
<path d="M18.4991 9.69427C18.3904 9.69384 18.2826 9.7147 18.182 9.75567C18.0814 9.79663 17.99 9.85689 17.9129 9.93298C17.8359 10.0091 17.7747 10.0995 17.733 10.1991C17.6913 10.2986 17.6698 10.4054 17.6698 10.5132C17.6698 10.965 18.0402 11.3289 18.4991 11.3289H30.6697C31.1286 11.3289 31.499 10.965 31.499 10.5132C31.499 10.4054 31.4775 10.2986 31.4358 10.1991C31.3941 10.0995 31.333 10.0091 31.2559 9.93298C31.1789 9.85689 31.0874 9.79663 30.9868 9.75567C30.8862 9.7147 30.7785 9.69384 30.6697 9.69427H18.4991ZM30.6697 5.33298C33.0756 5.33298 35.1046 6.9254 35.7307 9.1028L42.86 9.10605C44.8955 9.11904 46.5377 9.77226 47.5538 11.1794C48.4257 12.3884 48.7732 13.9418 48.6847 15.687L48.6748 57.9771C48.8125 59.771 48.4716 61.3569 47.5997 62.6731C46.577 64.2103 44.9086 64.9805 42.8403 65H7.01359C4.52244 64.9025 2.67702 64.3208 1.52322 63.0209C0.451368 61.8152 -0.0173615 60.161 0.00230552 58.1461V15.7292C-0.0403063 13.7793 0.507092 12.1349 1.70022 10.9195C2.93269 9.67152 4.75516 9.11904 7.09881 9.1028H13.4414C14.0642 6.9254 16.0932 5.33298 18.4991 5.33298H30.6697ZM30.6697 15.6902H18.4991C16.7094 15.6902 15.1328 14.8128 14.1822 13.4673H7.11192C5.85651 13.4738 5.13867 13.6948 4.87644 13.9613C4.57816 14.2635 4.40443 14.7803 4.4241 15.687V58.1623C4.41427 59.2185 4.59455 59.8588 4.85022 60.1447C5.02722 60.343 5.78768 60.5835 7.09553 60.6355H42.8239C43.4795 60.629 43.7417 60.5055 43.8925 60.2812C44.1908 59.8328 44.3284 59.1958 44.253 58.1428L44.2563 15.583C44.3022 14.6308 44.1678 14.0165 43.9416 13.7046C43.8564 13.5908 43.5614 13.4706 42.8403 13.4673H34.9833C34.0328 14.8128 32.4561 15.6902 30.6664 15.6902H30.6697ZM53.0999 0C56.3581 0 59 2.60312 59 5.81721V51.5814C59 54.7923 56.3581 57.3986 53.0999 57.3986H46.6819V53.0341H53.0966C53.9128 53.0341 54.5717 52.3841 54.5717 51.5814V5.81396C54.5699 5.42753 54.4136 5.05755 54.1371 4.78522C53.8606 4.51288 53.4864 4.36042 53.0966 4.36128H28.3293C27.5164 4.36128 26.8543 5.01125 26.8543 5.81396V6.32418H22.4292V5.81396C22.4292 2.60312 25.0712 0 28.3293 0H53.0999ZM23.5863 38.1888C24.8089 38.1888 25.7988 39.1638 25.7988 40.3695C25.7988 41.5719 24.8089 42.5501 23.5863 42.5501H10.3078C10.0181 42.5514 9.731 42.4961 9.46287 42.3874C9.19473 42.2786 8.95082 42.1186 8.74506 41.9164C8.5393 41.7142 8.37573 41.4738 8.26367 41.209C8.15162 40.9441 8.09328 40.66 8.092 40.3727C8.092 39.167 9.08518 38.1888 10.3078 38.1888H23.5863ZM36.8681 29.4663C38.0874 29.4663 39.0806 30.4412 39.0806 31.6469C39.0806 32.8494 38.0874 33.8276 36.8681 33.8276H10.3078C10.0181 33.8288 9.731 33.7735 9.46287 33.6648C9.19473 33.5561 8.95082 33.3961 8.74506 33.1939C8.5393 32.9917 8.37573 32.7513 8.26367 32.4864C8.15162 32.2215 8.09328 31.9374 8.092 31.6502C8.092 30.4445 9.08518 29.4663 10.3078 29.4663H36.8681ZM36.8681 20.7437C38.0874 20.7437 39.0806 21.7187 39.0806 22.9244C39.0798 23.2116 39.0218 23.4958 38.9102 23.7608C38.7985 24.0259 38.6353 24.2665 38.4299 24.469C38.2244 24.6715 37.9807 24.8319 37.7128 24.941C37.4448 25.0501 37.1578 25.1059 36.8681 25.105H10.3078C10.0181 25.1063 9.731 25.051 9.46287 24.9422C9.19473 24.8335 8.95082 24.6735 8.74506 24.4713C8.5393 24.2691 8.37573 24.0287 8.26367 23.7638C8.15162 23.499 8.09328 23.2148 8.092 22.9276C8.092 21.7219 9.08518 20.7437 10.3078 20.7437H36.8681Z" fill="#003778"/>
</svg>
